X:1
T:Title
%%score 1 { 2 | 3 }
L:1/8
Q:1/4=100
M:4/4
K:G
V:1 treble nm="Grand Piano, Soprano"
V:2 bass nm="Choir Pad, South Island 9.10.9.10.9.10"
V:3 bass 
V:1
 [B,G]2 [B,D]>[DG] [DB]2 [B,G]2 | [Gd]2 [Ge]>[Gd] [Gd]4 | G2 [FA][=FB] [Ed][D^Fc][GB][EA] | %3
w: By~Maude~Werner,~1899 * * * *|||
 [DG]2 [DF]>[DF] [DG]4 | [Bd]2 [GB][Bd] [ce][Bd][Ac][GB] | [Dc]2 [DB]>[GB] [FA]4 | %6
w: |||
 [DB]2 [B,G][DB] [Ec][DB][CA][B,G] | [CA]2 [EG]>[EG] [DF]4 | [B,G]2 [B,D]>[DG] [DB]2 [B,G]2 | %9
w: |||
 [Gd]2 [Ge]>[Gd] [Gd]4 | G2 [FA][=FB] [Ed][^Fc][GB][EA] | [DG]2 [DF]>[DF] [DG]4- | [DG]4 z4 |] %13
w: ||||
V:2
 G,2 G,>G, G,2 G,2 | B,2 C>B, B,4 | B,2[K:treble] CD CCDC | B,2 A,>A, B,4 | G,2 G,G, G,2 F,G, | %5
 F,2 G,>G, D,4 | G,4 G,,4 | C,2 ^C,>C, D,4 | G,2 G,>G, G,2 G,2 | B,2 C>B, B,4 | %10
 B,2[K:treble] CD CCDC | B,2 A,>A, B,4- | B,4 z4 |] %13
V:3
 z8 | G,2 G,>G, G,4 | G,2 G,G, C,A,,B,,C, | D,2 D,>D, G,,4 | z8 | z8 | z8 | z8 | z8 | %9
 G,2 G,>G, G,4 | G,2 G,G, C,A,,A,,C, | D,2 D,>D, G,,4- | G,,4 z4 |] %13

